svgs/sharp-regular/restroom-simple.svg

<svg xmlns="http://www.w3.org/2000/svg" viewBox="0 0 640 512"><!--! Font Awesome Pro 6.6.0 by @fontawesome - https://fontawesome.com License - https://fontawesome.com/license (Commercial License) Copyright 2024 Fonticons, Inc. --><path d="M128 128A64 64 0 1 0 128 0a64 64 0 1 0 0 128zM74 304l4-96 99.9 0 4 96-38 0-32 0-38 0zM64 352l0 136 0 24 48 0 0-24 0-136 32 0 0 136 0 24 48 0 0-24 0-136 40 0-2-48-6-144L32 160 26 304l-2 48 40 0zM344 0L296 0l0 24 0 464 0 24 48 0 0-24 0-464 0-24zM576 64A64 64 0 1 0 448 64a64 64 0 1 0 128 0zM484.2 208l55.6 0 36.6 128-128.7 0 36.6-128zM576 160l-128 0L397.7 336 384 384l49.9 0 14.1 0 0 104 0 24 48 0 0-24 0-104 32 0 0 104 0 24 48 0 0-24 0-104 14.1 0 49.9 0-13.7-48L576 160z"/></svg>

<svg xmlns="http://www.w3.org/2000/svg" viewBox="0 0 640 512"><!--! Font Awesome Pro 6.4.2 by @fontawesome - https://fontawesome.com License - https://fontawesome.com/license (Commercial License) Copyright 2023 Fonticons, Inc. --><path d="M128 128A64 64 0 1 0 128 0a64 64 0 1 0 0 128zM74 304l4-96H178l4 96H144 112 74zM64 352V488v24h48V488 352h32V488v24h48V488 352h40l-2-48-6-144H32L26 304l-2 48H64zM344 0H296V24 488v24h48V488 24 0zM576 64A64 64 0 1 0 448 64a64 64 0 1 0 128 0zM484.2 208h55.6l36.6 128H447.6l36.6-128zM576 160H448L397.7 336 384 384h49.9H448V488v24h48V488 384h32V488v24h48V488 384h14.1H640l-13.7-48L576 160z"/></svg>
